X:1
T:Title
%%score { 1 | ( 2 3 ) }
L:1/8
M:4/4
K:Db
V:1 treble nm="Grand Piano"
V:2 bass 
V:3 bass 
V:1
 z4 z[Q:1/4=84] FF[EG] | [FA]2 [FA]2 [FA]2 [Fd]2 | [Gd]3 [Gc] cBEF | [EG]2 [EG]2 [EG][GB][FA][EG] | %4
 F4 z FF[EG] | [FA]2 [FA]2 [FA]2 [Ad]2 | [=Gd]3 [Gc] [EGB][EGB][EAc][EGd] | [CAe]2 [A,EA]2 cdcB | %8
[M:5/8] [CA]-[CA]- [CA]3 |[M:3/8] ABc |[M:4/4] [Fd]>[Fd] [Fd]4 [Gc][GB] | [GB]>[FA] [FA]4 [Fd]2 | %12
 [Ec]3 [GB] [FA]2 [EG]2 |[M:5/8] F2 A3 |[M:3/8] ABc |[M:4/4] [Fd]>[Fd] [Fd]4 [Gd][Ad] | %16
[M:19/16] d>dd/-d/-d/-d/-d/-d-<ddcB |[M:4/4] A>A A4 [EGA]2 |[M:5/8] [DFA]-[DFA]- [DFA]3 |] %19
V:2
 z4 z [D,A,D][D,A,D][D,A,] | [D,D]2 [D,D]2 [D,D]2 [D,A,]2 | %2
 [E,A,]3 [E,A,][K:treble] [A,G][A,G][K:bass][A,C][A,D] | %3
 [A,,A,]2 [A,,A,]2 [A,,A,][A,,A,][A,,A,][A,,A,] | [D,A,D]4 z [D,A,D][D,A,D][D,A,] | %5
 [D,D]2 [D,D]2 [D,D]2 [F,D]2 | [E,B,]3 [E,B,] E,D,C,B,, | A,,2 C,2 [E,A,E][E,B,E][E,A,E][E,=G,D] | %8
[M:5/8] [A,,A,]-[A,,A,]- [A,,A,]3 |[M:3/8][K:treble] [A,C][A,B,=G][A,_G] | %10
[M:4/4][K:bass] [D,A,]>[D,A,] [D,A,]4 [D,B,][D,C] | [D,D]>[D,D] [D,D]4 [D,A,]2 | %12
 [A,,A,]3 [A,,A,] [A,,A,]2 [A,,A,]2 |[M:5/8] [A,D]2 z z2 |[M:3/8][K:treble] [A,C][A,B,=G][A,_G] | %15
[M:4/4][K:bass] [D,A,]>[D,A,] [D,A,]4 [E,A,][F,D] | %16
[M:19/16][K:treble] [G,B,G]>[G,B,G][G,B,G]/-[G,B,G]/-[G,B,G]/-[G,B,G]/-[G,B,G]/-[G,B,G]-<[G,B,G][G,B,G][G,B,G][=G,D_F] | %17
[M:4/4] [A,DF]>[A,DF][K:bass] [A,CE]4 A,,2 |[M:5/8] D,-D,- D,3 |] %19
V:3
 x8 | x8 | x4[K:treble] x2[K:bass] x2 | x8 | x8 | x8 | x8 | x8 |[M:5/8] x5 |[M:3/8][K:treble] x3 | %10
[M:4/4][K:bass] x8 | x8 | x8 |[M:5/8] D,2- [D,DF]3 |[M:3/8][K:treble] x3 |[M:4/4][K:bass] x8 | %16
[M:19/16][K:treble] x19/2 |[M:4/4] x2[K:bass] x6 |[M:5/8] x5 |] %19

